img/social-icons/whatsapp.svg

<svg width="36" height="36" viewBox="0 0 36 36" fill="none" xmlns="http://www.w3.org/2000/svg">
<g clip-path="url(#clip0_426_41869)">
<path d="M18.0045 0H17.9955C8.07075 0 0 8.073 0 18C0 21.9375 1.269 25.587 3.42675 28.5503L1.1835 35.2373L8.10225 33.0255C10.9485 34.911 14.3437 36 18.0045 36C27.9292 36 36 27.9247 36 18C36 8.07525 27.9292 0 18.0045 0Z" fill="#4CAF50"/>
<path d="M28.4782 25.4182C28.044 26.6445 26.3205 27.6615 24.9457 27.9585C24.0052 28.1587 22.7767 28.3185 18.6412 26.604C13.3515 24.4125 9.94499 19.0372 9.67949 18.6885C9.42524 18.3397 7.54199 15.8422 7.54199 13.2592C7.54199 10.6762 8.85374 9.41848 9.38249 8.87848C9.81674 8.43523 10.5345 8.23273 11.223 8.23273C11.4457 8.23273 11.646 8.24398 11.826 8.25298C12.3547 8.27548 12.6202 8.30698 12.969 9.14173C13.4032 10.188 14.4607 12.771 14.5867 13.0365C14.715 13.302 14.8432 13.662 14.6632 14.0107C14.4945 14.3707 14.346 14.5305 14.0805 14.8365C13.815 15.1425 13.563 15.3765 13.2975 15.705C13.0545 15.9907 12.78 16.2967 13.086 16.8255C13.392 17.343 14.4495 19.0687 16.0065 20.4547C18.0157 22.2435 19.6447 22.815 20.2275 23.058C20.6617 23.238 21.1792 23.1952 21.4965 22.8577C21.8992 22.4235 22.3965 21.7035 22.9027 20.9947C23.2627 20.4862 23.7172 20.4232 24.1942 20.6032C24.6802 20.772 27.252 22.0432 27.7807 22.3065C28.3095 22.572 28.6582 22.698 28.7865 22.9207C28.9125 23.1435 28.9125 24.1897 28.4782 25.4182Z" fill="#FAFAFA"/>
</g>
<defs>
<clipPath id="clip0_426_41869">
<rect width="36" height="36" fill="white"/>
</clipPath>
</defs>
</svg>

<svg width="36" height="36" fill="none" xmlns="http://www.w3.org/2000/svg"><g clip-path="url(#clip0_426_41869)"><path d="M18.005 0h-.01C8.072 0 0 8.073 0 18c0 3.938 1.269 7.587 3.427 10.55l-2.244 6.687 6.92-2.212A17.844 17.844 0 0018.004 36C27.928 36 36 27.925 36 18S27.93 0 18.005 0z" fill="#4CAF50"/><path d="M28.478 25.418c-.434 1.227-2.158 2.244-3.532 2.54-.94.2-2.17.36-6.305-1.354-5.29-2.191-8.696-7.567-8.962-7.915-.254-.35-2.137-2.847-2.137-5.43 0-2.583 1.312-3.84 1.84-4.38.435-.444 1.152-.646 1.841-.646.223 0 .423.011.603.02.529.022.794.054 1.143.889.434 1.046 1.492 3.629 1.618 3.895.128.265.256.625.076.974-.168.36-.317.52-.582.825-.266.306-.518.54-.784.869-.242.286-.517.592-.211 1.12.306.518 1.364 2.244 2.92 3.63 2.01 1.789 3.639 2.36 4.221 2.603.435.18.952.137 1.27-.2.402-.434.9-1.155 1.406-1.863.36-.509.814-.572 1.291-.392.486.169 3.058 1.44 3.587 1.703.529.266.877.392 1.006.615.126.223.126 1.269-.309 2.497z" fill="#FAFAFA"/></g><defs><clipPath id="clip0_426_41869"><path fill="#fff" d="M0 0h36v36H0z"/></clipPath></defs></svg>
